!!!OTL: Gesang zu Bittfahrten
!!!ARE: Europa, Mitteleuropa, Deutschland
!!!SCT: A0569A
!!!YEM: Copyright 1995, estate of Helmut Schaffrath.
**kern
*ICvox
*Ivox
!! Mixed meters:  4/1; 6/1
*M4/1
*k[b-]
*F:
=1
{1cc
1cc
1dd
1ee
=2
1ff
1ff
1ee}
{1dd
=3
1ff
1cc
1a
1b-
=4
*M6/1
0a
0g
0f}
=5
*M4/1
{1cc
1cc
1dd
1ee
=6
1ff
1ff
1ee}
{1dd
=7
1ff
1cc
1a
1b-
=8
*M6/1
0a
0g
0f}
=9
*M4/1
{1a
1cc
1a
1f
=10
1a
1b-
1cc
2r}
{2cc
=11
1cc
1ff
1ee
1dd
=12
*M6/1
0ee
0dd
1cc
2r}
{2cc
=13
*M4/1
1cc
1ff
1ee
1dd
=14
2ee
2dd
2cc
2b-
1a
2r}
{2a
=15
1g
1a
1.cc
2b-
=16
*M6/1
0a
0g
0f}
=17
*M4/1
{1a
1cc
1a
1f
=18
1a
1b-
1cc
2r}
{2cc
=19
1cc
1ff
1ee
1dd
=20
*M6/1
0ee
0dd
1cc
2r}
{2cc
=21
*M4/1
1cc
1ff
1ee
1dd
=22
2ee
2dd
2cc
2b-
1a
2r}
{2a
=23
1g
1a
1.cc
2b-
=24
*M6/1
0a
0g
0f}
=25
*M4/1
{2f
2f
1g
0a
=26
2f
2f
1g
1a
2r}
{2a
=27
1.cc
2b-
1a
1b-
=28
1a
1g
0f}
==
!!!AGN: Romanze, Ballade, Lied, religioeses Lied
!! Behe Kath. Gsgb 1537 fol. 47.
!!!ONB: ESAC (Essen Associative Code) Database: ALTDEU
!!!AMT: irregular
!!!AIN: vox
!!!EED: Helmut Schaffrath
!!!EEV: 1.0
*-
